X:1
T:Polska från Funäsdalen efter Olof Halvarsson
R:Polska
O:Funäsdalen, Härjedalen
M:3/4
L:1/8
K:A
S: efter Olof Halvarsson
B:EÖ
Z: LP
((3efg) a7/2 a/|(3g(bg) e7/2 g/|{g/a/}g>f d>e c>e|d>f f>e c>e|
d>B (3cAc (3BAG|A z [A,4E4]|((3efg) a7/2 a/|(3g(bg) e7/2 g/|
(g/a/)g/f/ d>e c>e|d>f {f/g/}f>e c>e|d>B (3cAc (3BGB|1 {G/}A z A4:|2 {G/}A z A7/2 E/|
|:E2 GB A>c|(3efe (3^def e>c|dB (3cAc (3BAG|A2 e4|
E2 G>B A2|{c/}(3efe (3^def e>c|dB (3cAc (3BAG|A2 A4:|

